(Generated By: Line Grinder Version: 01.04)
(Home Page: http://www.OfItselfSo.com/LineGrinder/LineGrinder.php)
(Generated from file: C:\Users\Anool\Documents\Arduino\ShapeOko\Illuminator\Illum_Gerb\Illum-F_Cu.gtl)
(Date Generated: Tuesday, 04 June 2013 14:40)

(The Line Grinder software is released under the MIT License. There)
(is no warranty or guarantee that the GCode files it produces)
(are without error. You use it, and run its output code entirely)
(at your own risk. In particular: )

(THE LINE GRINDER SOFTWARE, AND THE OUTPUT CODE IT GENERATES, ARE )
(PROVIDED "AS IS", WITHOUT WARRANTY OF ANY KIND, EXPRESS OR )
(IMPLIED, INCLUDING BUT NOT LIMITED TO THE WARRANTIES OF )
(MERCHANTABILITY, FITNESS FOR A PARTICULAR PURPOSE AND )
(NONINFRINGEMENT. IN NO EVENT SHALL THE AUTHORS OR COPYRIGHT )
(HOLDERS BE LIABLE FOR ANY CLAIM, DAMAGES OR OTHER LIABILITY, )
(WHETHER IN AN ACTION OF CONTRACT, TORT OR OTHERWISE, ARISING )
(FROM, OUT OF OR IN CONNECTION WITH THE SOFTWARE OR ITS OUTPUT)
(OR FROM THE USE OR OTHER DEALINGS IN THE SOFTWARE. )

G20 (Use Inches)
G90 (Set Absolute Coordinates)
G17 (XY plane selection)
G00 Z0.25
G00 X0 Y0
M03 (Start spindle)
G04 P1 (Pause to let the spindle start)
G00 X-0.527 Y0.911
G01 Z-0.002 F10
G01 X0.001 Y1.052
G01 X0.528 Y0.911
G01 X0.913 Y0.522
G01 X1.052 Y0.001
G01 X0.911 Y-0.527
G01 X0.528 Y-0.91
G01 X0.001 Y-1.052
G01 X-0.521 Y-0.913
G01 X-0.91 Y-0.527
G01 X-1.052 Y0
G01 X-0.91 Y0.527
G01 X-0.527 Y0.911
G01 Z0.1
G00 X-0.532 Y0.926
G01 Z-0.002
G01 X-0.003 Y1.067

G02 X-0.0021 Y1.0673 I0.003 J-0.007
G01 X-0.002 Y1.067
G01 X-0.002 Y1.067

G02 X0.002 Y1.067 I0.002 J-0.007
G01 X0.003 Y1.067

G02 X0.0038 Y1.0666 I-0.003 J-0.007
G01 X0.004 Y1.067
G01 X0.533 Y0.926

G02 X0.533 Y0.926 I-0.0015 J-0.0085
G01 Z0.1
G00 X-0.922 Y0.537
G01 Z-0.002
G01 X-0.537 Y0.923

G02 X-0.534 Y0.9249 I0.0055 J-0.0055
G01 X-0.534 Y0.925
G01 Z0.1
G00 X-1.067 Y0.002
G01 Z-0.002
G01 X-1.067 Y0.003

G02 X-1.0666 Y0.0038 I0.007 J-0.003
G01 X-1.067 Y0.004
G01 X-0.925 Y0.532

G02 X-0.9248 Y0.5329 I0.0075 J-0.001
G01 X-0.925 Y0.533
G01 Z0.1
G00 X-0.925 Y-0.532
G01 Z-0.002
G01 X-1.067 Y-0.003

G02 X-1.0673 Y-0.0021 I0.007 J0.003
G01 X-1.067 Y-0.002
G01 X-1.067 Y-0.002

G02 X-1.067 Y0.002 I0.007 J0.002
G01 Z0.1
G00 X-0.922 Y-0.537
G01 Z-0.002
G01 X-0.531 Y-0.925

G03 X-0.5269 Y-0.9275 I0.0055 J0.0045
G01 X-0.527 Y-0.928
G01 Z0.1
G00 X-0.526 Y-0.928
G01 Z-0.002
G01 X-0.003 Y-1.067

G03 X-0.0021 Y-1.0673 I0.003 J0.007
G01 X-0.002 Y-1.067
G01 X-0.002 Y-1.067

G03 X0.002 Y-1.067 I0.002 J0.007
G01 X0.003 Y-1.067

G03 X0.0038 Y-1.0666 I-0.003 J0.007
G01 X0.004 Y-1.067
G01 X0.533 Y-0.925

G03 X0.5342 Y-0.9247 I-0.0015 J0.008
G01 X0.534 Y-0.924
G01 Z0.1
G00 X0.538 Y-0.922
G01 Z-0.002
G01 X0.923 Y-0.537

G03 X0.9254 Y-0.5331 I-0.0055 J0.006
G01 X0.925 Y-0.533
G01 Z0.1
G00 X0.926 Y-0.532
G01 Z-0.002
G01 X1.067 Y-0.003

G03 X1.0673 Y-0.0021 I-0.007 J0.003
G01 X1.067 Y-0.002
G01 X1.067 Y-0.002

G03 X1.0673 Y0 I-0.007 J0.002
G01 X1.068 Y0

G03 X1.0677 Y0.0022 I-0.008 J0
G01 X1.067 Y0.002
G01 X1.067 Y0.003

G03 X1.0666 Y0.0038 I-0.007 J-0.003
G01 X1.067 Y0.004
G01 X0.929 Y0.527

G03 X0.9287 Y0.5282 I-0.0085 J-0.0015
G01 X0.928 Y0.528
G01 Z0.1
G00 X0.926 Y0.532
G01 Z-0.002
G01 X0.538 Y0.923

G03 X0.5342 Y0.9256 I-0.0065 J-0.0055
G01 X0.534 Y0.925
G01 Z0.1
G00 X-0.262 Y0.452
G01 Z-0.002
G01 X0.001 Y0.522
G01 X0.262 Y0.452
G01 X0.454 Y0.259
G01 X0.522 Y0.001
G01 X0.452 Y-0.261
G01 X0.262 Y-0.451
G01 X0.001 Y-0.522
G01 X-0.258 Y-0.453
G01 X-0.451 Y-0.262
G01 X-0.522 Y-0.001
G01 X-0.452 Y0.262
G01 X-0.262 Y0.452
G01 Z0.1
G00 X-0.267 Y0.467
G01 Z-0.002
G01 X-0.004 Y0.537

G02 X-0.0028 Y0.5375 I0.0035 J-0.007
G01 X-0.003 Y0.538
G01 X-0.002 Y0.538

G02 X0.001 Y0.538 I0.0015 J-0.008

G02 X0.002 Y0.5378 I-0.001 J-0.008
G01 X0.002 Y0.538
G01 X0.003 Y0.538

G02 X0.0042 Y0.5374 I-0.003 J-0.008
G01 X0.004 Y0.537
G01 X0.267 Y0.467

G02 X0.267 Y0.467 I-0.0015 J-0.008
G01 Z0.1
G00 X-0.464 Y0.272
G01 Z-0.002
G01 X-0.272 Y0.464

G02 X-0.2681 Y0.4664 I0.006 J-0.0055
G01 X-0.268 Y0.466
G01 Z0.1
G00 X-0.537 Y0.002
G01 Z-0.002
G01 X-0.537 Y0.002

G02 X-0.5366 Y0.0028 I0.007 J-0.0025
G01 X-0.537 Y0.003
G01 X-0.467 Y0.267

G02 X-0.467 Y0.267 I0.008 J-0.0015
G01 Z0.1
G00 X-0.466 Y-0.267
G01 Z-0.002
G01 X-0.537 Y-0.004

G02 X-0.5374 Y-0.0031 I0.007 J0.0035
G01 X-0.537 Y-0.003
G01 X-0.537 Y-0.002

G02 X-0.5367 Y0.0019 I0.007 J0.0015
G01 X-0.537 Y0.002
G01 Z0.1
G00 X-0.463 Y-0.272
G01 Z-0.002
G01 X-0.268 Y-0.465

G03 X-0.2639 Y-0.4675 I0.0055 J0.0045
G01 X-0.264 Y-0.468
G01 Z0.1
G00 X-0.263 Y-0.468
G01 Z-0.002
G01 X-0.003 Y-0.537

G03 X-0.0021 Y-0.5373 I0.003 J0.007
G01 X-0.002 Y-0.537
G01 X-0.002 Y-0.537

G03 X0.002 Y-0.537 I0.002 J0.007
G01 X0.003 Y-0.537

G03 X0.0038 Y-0.5366 I-0.003 J0.007
G01 X0.004 Y-0.537
G01 X0.267 Y-0.466

G03 X0.2679 Y-0.4658 I-0.001 J0.0075
G01 X0.268 Y-0.466
G01 Z0.1
G00 X0.272 Y-0.463
G01 Z-0.002
G01 X0.464 Y-0.271

G03 X0.4661 Y-0.267 I-0.0055 J0.0055
G01 X0.466 Y-0.267
G01 Z0.1
G00 X0.467 Y-0.266
G01 Z-0.002
G01 X0.537 Y-0.003

G03 X0.5374 Y-0.0018 I-0.007 J0.003
G01 X0.538 Y-0.002
G01 X0.538 Y-0.002

G03 X0.5382 Y0 I-0.008 J0.002
G01 X0.538 Y0

G03 X0.5378 Y0.0019 I-0.008 J0
G01 X0.538 Y0.002
G01 X0.538 Y0.003

G03 X0.5374 Y0.0042 I-0.008 J-0.003
G01 X0.537 Y0.004
G01 X0.469 Y0.264

G03 X0.4688 Y0.2652 I-0.0085 J-0.001
G01 X0.468 Y0.265
G01 Z0.1
G00 X0.466 Y0.269
G01 Z-0.002
G01 X0.272 Y0.464

G03 X0.2679 Y0.4668 I-0.0065 J-0.005
G01 X0.268 Y0.467
G01 Z0.1
G00 X0.174 Y0.542
G01 Z-0.002
G01 X0.227 Y0.542

G03 X0.2497 Y0.5532 I-0.0005 J0.0295
G01 X0.25 Y0.553
G01 X0.279 Y0.582

G03 X0.2898 Y0.605 I-0.019 J0.023
G01 X0.29 Y0.605
G01 X0.29 Y0.874

G03 X0.2791 Y0.8971 I-0.03 J0
G01 X0.279 Y0.897
G01 X0.223 Y0.953

G03 X0.2 Y0.964 I-0.023 J-0.019
G01 X0.153 Y0.964

G03 X0.0759 Y0.9964 I-0.058 J-0.03
G01 X0.076 Y0.996
G01 X0.063 Y1.009

G03 X0.04 Y1.02 I-0.023 J-0.019
G01 X-0.115 Y1.02

G03 X-0.118 Y1.0199 I0 J-0.03
G01 X-0.118 Y1.02
G01 Z0.1
G00 X0.174 Y0.602
G01 Z-0.002
G01 X0.215 Y0.602
G01 X0.23 Y0.617
G01 X0.23 Y0.862
G01 X0.188 Y0.904
G01 X0.153 Y0.904

G02 X0.0333 Y0.9553 I-0.058 J0.03
G01 X0.034 Y0.955
G01 X0.028 Y0.96
G01 X-0.102 Y0.96
G01 X-0.161 Y0.901

G02 X-0.182 Y0.892 I-0.0215 J0.021
G01 X-0.203 Y0.892

G02 X-0.229 Y0.874 I-0.04 J0.03
G01 Z0.1
G00 X-0.42 Y0.461
G01 Z-0.002
G01 X-0.356 Y0.461

G03 X-0.3332 Y0.4721 I-0.0005 J0.03
G01 X-0.333 Y0.472
G01 X-0.264 Y0.542
G01 X0.094 Y0.542

G03 X0.174 Y0.542 I0.04 J0.0295
G01 Z0.1
G00 X-0.42 Y0.521
G01 Z-0.002
G01 X-0.368 Y0.521
G01 X-0.299 Y0.591

G02 X-0.276 Y0.602 I0.023 J-0.0195
G01 X0.094 Y0.602

G02 X0.147 Y0.6201 I0.04 J-0.0305
G01 X0.147 Y0.62
G01 Z0.1
G00 X-0.195 Y0.952
G01 Z-0.002
G01 X-0.136 Y1.011

G02 X-0.1259 Y1.0176 I0.021 J-0.021
G01 X-0.126 Y1.018
G01 Z0.1
G00 X-0.203 Y0.952
G01 Z-0.002
G01 X-0.195 Y0.952
G01 Z0.1
G00 X0.19 Y0.708
G01 Z-0.002
G01 X0.19 Y0.755

G03 X0.1791 Y0.7781 I-0.03 J0
G01 X0.179 Y0.778
G01 X0.138 Y0.819

G03 X0.115 Y0.83 I-0.023 J-0.019
G01 X0.089 Y0.83

G03 X0.076 Y0.8421 I-0.04 J-0.03
G01 X0.076 Y0.842

G03 X0.0681 Y0.8521 I-0.027 J-0.013
G01 X0.068 Y0.852
G01 X-0.002 Y0.922

G03 X-0.025 Y0.933 I-0.023 J-0.019
G01 X-0.09 Y0.933

G03 X-0.1112 Y0.9242 I0 J-0.03
G01 X-0.111 Y0.924
G01 X-0.178 Y0.857

G03 X-0.225 Y0.875 I-0.039 J-0.0315
G01 Z0.1
G00 X0.13 Y0.708
G01 Z-0.002
G01 X0.13 Y0.743
G01 X0.103 Y0.77
G01 X0.089 Y0.77

G02 X-0.0008 Y0.796 I-0.04 J0.03
G01 X-0.001 Y0.796
G01 Z0.1
G00 X-0.589 Y0.69
G01 Z-0.002
G01 X-0.589 Y0.735
G01 X-0.498 Y0.826
G01 X-0.352 Y0.826
G01 X-0.332 Y0.807

G03 X-0.309 Y0.7964 I0.0225 J0.0185
G01 X-0.309 Y0.796
G01 X-0.257 Y0.796

G03 X-0.177 Y0.796 I0.04 J0.0295
G01 X-0.167 Y0.796

G03 X-0.1454 Y0.8054 I0 J0.0295
G01 X-0.145 Y0.805
G01 X-0.077 Y0.873
G01 X-0.037 Y0.873
G01 X0.008 Y0.829
G01 Z0.1
G00 X-0.649 Y0.69
G01 Z-0.002
G01 X-0.649 Y0.747

G02 X-0.6406 Y0.7676 I0.0295 J0
G01 X-0.641 Y0.768
G01 X-0.532 Y0.877

G02 X-0.511 Y0.886 I0.021 J-0.021
G01 X-0.34 Y0.886

G02 X-0.3169 Y0.8751 I0 J-0.03
G01 X-0.317 Y0.875
G01 X-0.297 Y0.856
G01 X-0.257 Y0.856

G02 X-0.2352 Y0.8724 I0.04 J-0.0305
G01 X-0.235 Y0.872
G01 Z0.1
G00 X0.395 Y0.751
G01 Z-0.002
G01 X0.404 Y0.794

G03 X0.4498 Y0.856 I-0.019 J0.062
G01 X0.45 Y0.856

G03 X0.3438 Y0.8057 I-0.065 J0
G01 X0.344 Y0.806
G01 Z0.1
G00 X0.336 Y0.762
G01 Z-0.002
G01 X0.344 Y0.805
G01 Z0.1
G00 X-0.76 Y0.081
G01 Z-0.002
G01 X-0.698 Y0.311

G03 X-0.6668 Y0.358 I-0.019 J0.0465
G01 X-0.667 Y0.358

G03 X-0.7564 Y0.3267 I-0.05 J-0.0005
G01 X-0.756 Y0.327
G01 X-0.818 Y0.097

G03 X-0.804 Y-0.0002 I0.018 J-0.047
G01 X-0.804 Y0
G01 Z0.1
G00 X0.494 Y-0.659
G01 Z-0.002
G01 X0.66 Y-0.494

G03 X0.717 Y-0.444 I0.007 J0.0495

G03 X0.6919 Y-0.4011 I-0.05 J-0.0005
G01 X0.692 Y-0.401
G01 Z0.1
G00 X0.452 Y-0.617
G01 Z-0.002
G01 X0.618 Y-0.452

G02 X0.6917 Y-0.4015 I0.049 J0.0075
G01 X0.692 Y-0.401
G01 Z0.1
G00 X0.757 Y-0.327
G01 Z-0.002
G01 X0.819 Y-0.096

G03 X0.8498 Y-0.05 I-0.019 J0.046
G01 X0.85 Y-0.05

G03 X0.805 Y-0.0002 I-0.05 J0
G01 X0.805 Y0
G01 Z0.1
G00 X0.699 Y-0.311
G01 Z-0.002
G01 X0.761 Y-0.08

G02 X0.7961 Y-0.001 I0.039 J0.03
G01 X0.796 Y0
G01 Z0.1
G00 X0.761 Y0.081
G01 Z-0.002
G01 X0.701 Y0.307

G02 X0.6954 Y0.3953 I0.019 J0.0455
G01 X0.695 Y0.396
G01 Z0.1
G00 X0.819 Y0.096
G01 Z-0.002
G01 X0.759 Y0.322

G03 X0.7695 Y0.353 I-0.039 J0.0305
G01 X0.77 Y0.353

G03 X0.6951 Y0.3959 I-0.05 J-0.0005
G01 X0.695 Y0.396
G01 Z0.1
G00 X0.621 Y0.447
G01 Z-0.002
G01 X0.451 Y0.618

G02 X0.4016 Y0.6916 I-0.0065 J0.049
G01 X0.401 Y0.692
G01 Z0.1
G00 X0.664 Y0.489
G01 Z-0.002
G01 X0.494 Y0.66

G03 X0.4945 Y0.667 I-0.0495 J0.007
G01 X0.495 Y0.667

G03 X0.4007 Y0.6922 I-0.0505 J0
G01 X0.401 Y0.692
G01 Z0.1
G00 X-0.322 Y-0.759
G01 Z-0.002
G01 X-0.096 Y-0.819

G03 X-0.0004 Y-0.804 I0.046 J0.019
G01 X0 Y-0.804
G01 Z0.1
G00 X-0.307 Y-0.701
G01 Z-0.002
G01 X-0.081 Y-0.761

G02 X-0.0004 Y-0.795 I0.031 J-0.039
G01 X0 Y-0.795
G01 Z0.1
G00 X-0.318 Y0.687
G01 Z-0.002
G01 X-0.134 Y0.687

G03 X-0.1109 Y0.6979 I0 J0.03
G01 X-0.111 Y0.698
G01 X-0.058 Y0.751

G03 X-0.0015 Y0.8 I0.007 J0.049
G01 X-0.001 Y0.8

G03 X-0.1005 Y0.7929 I-0.05 J0
G01 X-0.1 Y0.793
G01 X-0.146 Y0.747
G01 X-0.318 Y0.747

G03 X-0.4022 Y0.6919 I-0.0405 J-0.03
G01 X-0.402 Y0.692
G01 Z0.1
G00 X0.097 Y-0.818
G01 Z-0.002
G01 X0.327 Y-0.756

G03 X0.407 Y-0.717 I0.0305 J0.039
G01 X0.408 Y-0.717

G03 X0.4013 Y-0.6918 I-0.0505 J0
G01 X0.401 Y-0.692
G01 Z0.1
G00 X0.081 Y-0.76
G01 Z-0.002
G01 X0.311 Y-0.698

G02 X0.4006 Y-0.6912 I0.0465 J-0.019
G01 X0.401 Y-0.691
G01 Z0.1
G00 X-0.617 Y0.452
G01 Z-0.002
G01 X-0.452 Y0.618

G03 X-0.3961 Y0.667 I0.0065 J0.049
G01 X-0.395 Y0.667

G03 X-0.4955 Y0.6599 I-0.0505 J0
G01 X-0.495 Y0.66
G01 X-0.66 Y0.494

G03 X-0.6919 Y0.4012 I-0.007 J-0.0495
G01 X-0.692 Y0.401
G01 Z0.1
G00 X-0.756 Y-0.327
G01 Z-0.002
G01 X-0.818 Y-0.096

G02 X-0.7506 Y-0.05 I0.018 J0.046
G01 X-0.75 Y-0.05

G02 X-0.76 Y-0.08 I-0.05 J0
G01 X-0.698 Y-0.311

G02 X-0.6668 Y-0.357 I-0.019 J-0.0465
G01 X-0.667 Y-0.357

G02 X-0.6909 Y-0.4002 I-0.05 J-0.0005
G01 X-0.691 Y-0.4
G01 Z0.1
G00 X-0.66 Y-0.494
G01 Z-0.002
G01 X-0.49 Y-0.663

G03 X-0.3972 Y-0.6949 I0.0495 J-0.007
G01 X-0.397 Y-0.695
G01 Z0.1
G00 X-0.617 Y-0.451
G01 Z-0.002
G01 X-0.447 Y-0.62

G02 X-0.3901 Y-0.67 I0.0065 J-0.05
G01 X-0.39 Y-0.67

G02 X-0.3963 Y-0.6944 I-0.0505 J0
G01 X-0.397 Y-0.694

G01 Z0.1
G00 X-0.532 Y0.926
G01 Z-0.002
G03 X-0.5332 Y0.9258 I0.0005 J-0.0085
G01 X-0.533 Y0.925

G01 Z0.1
G00 X-0.922 Y0.537
G01 Z-0.002
G03 X-0.9247 Y0.5329 I0.0045 J-0.006
G01 X-0.925 Y0.533

G01 Z0.1
G00 X-0.925 Y-0.532
G01 Z-0.002
G03 X-0.9248 Y-0.5329 I0.0075 J0.001
G01 X-0.925 Y-0.533

G03 X-0.9222 Y-0.5372 I0.0075 J0.002
G01 X-0.922 Y-0.537

G01 Z0.1
G00 X-0.527 Y-0.928
G01 Z-0.002
G03 X-0.526 Y-0.9281 I0.0015 J0.0075
G01 X-0.526 Y-0.928

G01 Z0.1
G00 X0.534 Y-0.924
G01 Z-0.002
G03 X0.5374 Y-0.9215 I-0.0025 J0.007
G01 X0.538 Y-0.922

G01 Z0.1
G00 X0.926 Y-0.532
G01 Z-0.002
G03 X0.926 Y-0.532 I-0.0085 J0.001

G01 Z0.1
G00 X0.928 Y0.528
G01 Z-0.002
G03 X0.9256 Y0.5315 I-0.0075 J-0.0025
G01 X0.926 Y0.532

G01 Z0.1
G00 X-0.267 Y0.467
G01 Z-0.002
G03 X-0.2682 Y0.4668 I0.001 J-0.0085
G01 X-0.268 Y0.466

G01 Z0.1
G00 X-0.464 Y0.272
G01 Z-0.002
G03 X-0.4667 Y0.2683 I0.005 J-0.0065
G01 X-0.466 Y0.268

G01 Z0.1
G00 X-0.466 Y-0.267
G01 Z-0.002
G03 X-0.4658 Y-0.2679 I0.0075 J0.001
G01 X-0.466 Y-0.268

G03 X-0.4632 Y-0.2722 I0.0075 J0.002
G01 X-0.463 Y-0.272

G01 Z0.1
G00 X-0.264 Y-0.468
G01 Z-0.002
G03 X-0.263 Y-0.4681 I0.0015 J0.0075
G01 X-0.263 Y-0.468

G01 Z0.1
G00 X0.269 Y-0.466
G01 Z-0.002
G03 X0.2725 Y-0.4633 I-0.003 J0.0075
G01 X0.272 Y-0.463

G01 Z0.1
G00 X0.467 Y-0.267
G01 Z-0.002
G03 X0.4671 Y-0.266 I-0.0085 J0.0015
G01 X0.467 Y-0.266

G01 Z0.1
G00 X0.468 Y0.266
G01 Z-0.002
G03 X0.466 Y0.269 I-0.0075 J-0.003

G01 Z0.1
G00 X0.055 Y0
G01 Z-0.002
G03 X0.055 Y0 I-0.055 J0

G01 Z0.1
G00 X-0.42 Y0.521
G01 Z-0.002
G03 X-0.42 Y0.461 I-0.058 J-0.03

G01 Z0.1
G00 X-0.554 Y0.633
G01 Z-0.002
G03 X-0.5888 Y0.6904 I-0.0655 J-0.0005
G01 X-0.589 Y0.69

G01 Z0.1
G00 X-0.649 Y0.69
G01 Z-0.002
G03 X-0.5549 Y0.633 I0.0295 J-0.0575
G01 X-0.554 Y0.633

G01 Z0.1
G00 X0.174 Y0.602
G01 Z-0.002
G03 X0.148 Y0.6198 I-0.04 J-0.0305
G01 X0.148 Y0.62

G01 Z0.1
G00 X0.21 Y0.668
G01 Z-0.002
G03 X0.19 Y0.708 I-0.05 J0

G01 Z0.1
G00 X0.13 Y0.708
G01 Z-0.002
G03 X0.143 Y0.621 I0.03 J-0.04

G03 X0.1439 Y0.6207 I0.017 J0.047
G01 X0.144 Y0.621

G01 Z0.1
G00 X0.15 Y0.619
G01 Z-0.002
G03 X0.1519 Y0.6186 I0.01 J0.049
G01 X0.152 Y0.619

G03 X0.2096 Y0.668 I0.008 J0.049
G01 X0.21 Y0.668

G01 Z0.1
G00 X-0.203 Y0.952
G01 Z-0.002
G03 X-0.2302 Y0.8737 I-0.04 J-0.03
G01 X-0.23 Y0.873

G01 Z0.1
G00 X-0.226 Y0.875
G01 Z-0.002
G03 X-0.227 Y0.8748 I0.009 J-0.0495
G01 X-0.227 Y0.875

G01 Z0.1
G00 X-0.233 Y0.873
G01 Z-0.002
G03 X-0.2339 Y0.8727 I0.016 J-0.0475
G01 X-0.234 Y0.873

G01 Z0.1
G00 X0.408 Y0.717
G01 Z-0.002
G03 X0.3954 Y0.7504 I-0.0505 J0
G01 X0.395 Y0.75

G01 Z0.1
G00 X0.336 Y0.762
G01 Z-0.002
G03 X0.4074 Y0.717 I0.0215 J-0.045
G01 X0.408 Y0.717

G01 Z0.1
G00 X0.72 Y0.44
G01 Z-0.002
G03 X0.664 Y0.4891 I-0.05 J-0.0005
G01 X0.664 Y0.489

G01 Z0.1
G00 X0.621 Y0.447
G01 Z-0.002
G03 X0.7196 Y0.44 I0.049 J-0.0075
G01 X0.72 Y0.44

G01 Z0.1
G00 X0.85 Y0.05
G01 Z-0.002
G03 X0.8191 Y0.0962 I-0.05 J0
G01 X0.819 Y0.096

G01 Z0.1
G00 X0.761 Y0.081
G01 Z-0.002
G03 X0.8498 Y0.05 I0.039 J-0.031
G01 X0.85 Y0.05

G01 Z0.1
G00 X0.767 Y-0.357
G01 Z-0.002
G03 X0.7568 Y-0.3272 I-0.05 J-0.0005
G01 X0.757 Y-0.327

G01 Z0.1
G00 X0.699 Y-0.311
G01 Z-0.002
G03 X0.7669 Y-0.357 I0.018 J-0.0465
G01 X0.767 Y-0.357

G01 Z0.1
G00 X0.495 Y-0.667
G01 Z-0.002
G03 X0.4944 Y-0.6589 I-0.0505 J0
G01 X0.494 Y-0.659

G01 Z0.1
G00 X0.452 Y-0.617
G01 Z-0.002
G03 X0.4951 Y-0.667 I-0.0075 J-0.05
G01 X0.495 Y-0.667

G01 Z0.1
G00 X0.081 Y-0.76
G01 Z-0.002
G03 X0.0973 Y-0.8181 I-0.031 J-0.04
G01 X0.097 Y-0.818

G01 Z0.1
G00 X-0.307 Y-0.701
G01 Z-0.002
G03 X-0.3219 Y-0.7591 I-0.0465 J-0.019
G01 X-0.322 Y-0.759

G01 Z0.1
G00 X-0.617 Y-0.444
G01 Z-0.002
G03 X-0.66 Y-0.494 I-0.05 J-0.0005

G01 Z0.1
G00 X-0.617 Y-0.451
G01 Z-0.002
G03 X-0.6166 Y-0.444 I-0.05 J0.0065
G01 X-0.617 Y-0.444

G01 Z0.1
G00 X-0.756 Y-0.327
G01 Z-0.002
G03 X-0.6923 Y-0.4004 I0.039 J-0.0305
G01 X-0.692 Y-0.401

G01 Z0.1
G00 X-0.75 Y0.05
G01 Z-0.002
G03 X-0.7605 Y0.0806 I-0.05 J0
G01 X-0.76 Y0.081

G01 Z0.1
G00 X-0.795 Y0
G01 Z-0.002
G03 X-0.7498 Y0.05 I-0.005 J0.05
G01 X-0.75 Y0.05

G01 Z0.1
G00 X-0.617 Y0.445
G01 Z-0.002
G03 X-0.6176 Y0.4519 I-0.05 J-0.0005
G01 X-0.617 Y0.452

G01 Z0.1
G00 X-0.691 Y0.401
G01 Z-0.002
G03 X-0.6173 Y0.445 I0.024 J0.0435
G01 X-0.617 Y0.445

G01 Z0.1
G00 X-0.401 Y0.692
G01 Z-0.002
G03 X-0.3189 Y0.6877 I0.0425 J0.025
G01 X-0.318 Y0.687

G01 Z0.1
G00 X0.008 Y0.828
G01 Z-0.002
G03 X-0.0004 Y0.8049 I0.041 J-0.028
G01 X-0.001 Y0.805

G01 Z0.1
G00 X-0.119 Y1.02
G01 Z-0.002
G03 X-0.12 Y1.0199 I0.004 J-0.03
G01 X-0.12 Y1.02

G01 Z0.1
G00 X-0.121 Y1.02
G01 Z-0.002
G03 X-0.1222 Y1.0197 I0.006 J-0.03
G01 X-0.122 Y1.019

G01 Z0.1
G00 X-0.125 Y1.018
G01 Z-0.002
G03 X-0.1259 Y1.0177 I0.01 J-0.028
G01 X-0.126 Y1.018
(... pad touchdown start ...)
G00 Z0.25
G00 X0 Y0
G01 Z-0.005
G04 P0.25
G00 Z0.25
G00 X-0.478 Y0.491
G01 Z-0.005
G04 P0.25
G00 Z0.25
G00 X-0.62 Y0.633
G01 Z-0.005
G04 P0.25
G00 Z0.25
G00 X0.134 Y0.572
G01 Z-0.005
G04 P0.25
G00 Z0.25
G00 X0.16 Y0.668
G01 Z-0.005
G04 P0.25
G00 Z0.25
G00 X0.095 Y0.934
G01 Z-0.005
G04 P0.25
G00 Z0.25
G00 X0.385 Y0.856
G01 Z-0.005
G04 P0.25
G00 Z0.25
G00 X-0.243 Y0.922
G01 Z-0.005
G04 P0.25
G00 Z0.25
G00 X-0.217 Y0.826
G01 Z-0.005
G04 P0.25
G00 Z0.25
G00 X0.358 Y0.717
G01 Z-0.005
G04 P0.25
G00 Z0.25
G00 X0.444 Y0.667
G01 Z-0.005
G04 P0.25
G00 Z0.25
G00 X0.67 Y0.439
G01 Z-0.005
G04 P0.25
G00 Z0.25
G00 X0.72 Y0.353
G01 Z-0.005
G04 P0.25
G00 Z0.25
G00 X0.8 Y0.05
G01 Z-0.005
G04 P0.25
G00 Z0.25
G00 X0.8 Y-0.05
G01 Z-0.005
G04 P0.25
G00 Z0.25
G00 X0.717 Y-0.358
G01 Z-0.005
G04 P0.25
G00 Z0.25
G00 X0.667 Y-0.444
G01 Z-0.005
G04 P0.25
G00 Z0.25
G00 X0.444 Y-0.667
G01 Z-0.005
G04 P0.25
G00 Z0.25
G00 X0.358 Y-0.717
G01 Z-0.005
G04 P0.25
G00 Z0.25
G00 X0.05 Y-0.8
G01 Z-0.005
G04 P0.25
G00 Z0.25
G00 X-0.05 Y-0.8
G01 Z-0.005
G04 P0.25
G00 Z0.25
G00 X-0.354 Y-0.72
G01 Z-0.005
G04 P0.25
G00 Z0.25
G00 X-0.44 Y-0.67
G01 Z-0.005
G04 P0.25
G00 Z0.25
G00 X-0.667 Y-0.444
G01 Z-0.005
G04 P0.25
G00 Z0.25
G00 X-0.717 Y-0.358
G01 Z-0.005
G04 P0.25
G00 Z0.25
G00 X-0.8 Y-0.05
G01 Z-0.005
G04 P0.25
G00 Z0.25
G00 X-0.8 Y0.05
G01 Z-0.005
G04 P0.25
G00 Z0.25
G00 X-0.717 Y0.358
G01 Z-0.005
G04 P0.25
G00 Z0.25
G00 X-0.667 Y0.444
G01 Z-0.005
G04 P0.25
G00 Z0.25
G00 X-0.445 Y0.667
G01 Z-0.005
G04 P0.25
G00 Z0.25
G00 X-0.359 Y0.717
G01 Z-0.005
G04 P0.25
G00 Z0.25
G00 X-0.051 Y0.8
G01 Z-0.005
G04 P0.25
G00 Z0.25
G00 X0.049 Y0.8
G01 Z-0.005
G04 P0.25
G00 Z0.25
(... pad touchdown end ...)
G00 Z0.25
G00 X0 Y0
M05 (Stop spindle)
M02 (Program End)

