(Generated By: Line Grinder Version: 01.04)
(Home Page: http://www.OfItselfSo.com/LineGrinder/LineGrinder.php)
(Date Generated: Tuesday, 04 June 2013 14:40)

(The Line Grinder software is released under the MIT License. There)
(is no warranty or guarantee that the GCode files it produces)
(are without error. You use it, and run its output code entirely)
(at your own risk. In particular: )

(THE LINE GRINDER SOFTWARE, AND THE OUTPUT CODE IT GENERATES, ARE )
(PROVIDED "AS IS", WITHOUT WARRANTY OF ANY KIND, EXPRESS OR )
(IMPLIED, INCLUDING BUT NOT LIMITED TO THE WARRANTIES OF )
(MERCHANTABILITY, FITNESS FOR A PARTICULAR PURPOSE AND )
(NONINFRINGEMENT. IN NO EVENT SHALL THE AUTHORS OR COPYRIGHT )
(HOLDERS BE LIABLE FOR ANY CLAIM, DAMAGES OR OTHER LIABILITY, )
(WHETHER IN AN ACTION OF CONTRACT, TORT OR OTHERWISE, ARISING )
(FROM, OUT OF OR IN CONNECTION WITH THE SOFTWARE OR ITS OUTPUT)
(OR FROM THE USE OR OTHER DEALINGS IN THE SOFTWARE. )

G20 (Use Inches)
G90 (Set Absolute Coordinates)
G17 (XY plane selection)
G00 Z0.25
G00 X0 Y0
M03 (Start spindle)
G04 P1 (Pause to let the spindle start)
(ToolTable: Tool 1, Dia= 0.04)
M05
T1 (ToolChange, ToolNum: 1, Drill Dia:0.04)
M6
M03
G00 X-0.8 Y0.05
G01 Z-0.07 F10
G00 Z0.25
G00 X-0.8 Y-0.05
G01 Z-0.07
G00 Z0.25
G00 X-0.717 Y0.358
G01 Z-0.07
G00 Z0.25
G00 X-0.717 Y-0.358
G01 Z-0.07
G00 Z0.25
G00 X-0.667 Y0.444
G01 Z-0.07
G00 Z0.25
G00 X-0.667 Y-0.444
G01 Z-0.07
G00 Z0.25
G00 X-0.62 Y0.633
G01 Z-0.07
G00 Z0.25
G00 X-0.478 Y0.491
G01 Z-0.07
G00 Z0.25
G00 X-0.445 Y0.667
G01 Z-0.07
G00 Z0.25
G00 X-0.44 Y-0.67
G01 Z-0.07
G00 Z0.25
G00 X-0.359 Y0.717
G01 Z-0.07
G00 Z0.25
G00 X-0.354 Y-0.72
G01 Z-0.07
G00 Z0.25
G00 X-0.243 Y0.922
G01 Z-0.07
G00 Z0.25
G00 X-0.217 Y0.826
G01 Z-0.07
G00 Z0.25
G00 X-0.051 Y0.8
G01 Z-0.07
G00 Z0.25
G00 X-0.05 Y-0.8
G01 Z-0.07
G00 Z0.25
G00 X0 Y0
G01 Z-0.07
G00 Z0.25
G00 X0.049 Y0.8
G01 Z-0.07
G00 Z0.25
G00 X0.05 Y-0.8
G01 Z-0.07
G00 Z0.25
G00 X0.095 Y0.934
G01 Z-0.07
G00 Z0.25
G00 X0.134 Y0.572
G01 Z-0.07
G00 Z0.25
G00 X0.16 Y0.668
G01 Z-0.07
G00 Z0.25
G00 X0.358 Y0.717
G01 Z-0.07
G00 Z0.25
G00 X0.358 Y-0.717
G01 Z-0.07
G00 Z0.25
G00 X0.385 Y0.856
G01 Z-0.07
G00 Z0.25
G00 X0.444 Y0.667
G01 Z-0.07
G00 Z0.25
G00 X0.444 Y-0.667
G01 Z-0.07
G00 Z0.25
G00 X0.667 Y-0.444
G01 Z-0.07
G00 Z0.25
G00 X0.67 Y0.439
G01 Z-0.07
G00 Z0.25
G00 X0.717 Y-0.358
G01 Z-0.07
G00 Z0.25
G00 X0.72 Y0.353
G01 Z-0.07
G00 Z0.25
G00 X0.8 Y0.05
G01 Z-0.07
G00 Z0.25
G00 X0.8 Y-0.05
G01 Z-0.07
G00 Z0.25
M05
T0
M6
M03
G00 Z0.25
G00 X0 Y0
M05 (Stop spindle)
M02 (Program End)

